src/22/actions/insert-button.svg

<svg xmlns="http://www.w3.org/2000/svg" viewBox="0 0 22 22">
  <defs id="defs3051">
    <style type="text/css" id="current-color-scheme">
      .ColorScheme-Text {
        color:#5d656b;
      }
      </style>
  </defs>
 <path 
     style="fill:currentColor;fill-opacity:0.5;stroke:none" 
     d="M 17.96875 6.53125 C 17.98155 6.60335 18 6.67409 18 6.75 L 18 14.25 C 18 14.94252 17.44252 15.5 16.75 15.5 L 4.25 15.5 C 4.1741 15.5 4.10336 15.48155 4.03125 15.46875 C 4.13556 16.05449 4.63339 16.5 5.25 16.5 L 17.75 16.5 C 18.44252 16.5 19 15.94252 19 15.25 L 19 7.75 C 19 7.13339 18.55449 6.63556 17.96875 6.53125 z "
     class="ColorScheme-Text"
     />
 <path 
     style="fill:currentColor;fill-opacity:1;stroke:none" 
     d="M 4.25 5.5 C 3.55748 5.5 3 6.05748 3 6.75 L 3 14.25 C 3 14.94252 3.55748 15.5 4.25 15.5 L 16.75 15.5 C 17.44252 15.5 18 14.94252 18 14.25 L 18 6.75 C 18 6.05748 17.44252 5.5 16.75 5.5 L 4.25 5.5 z M 14 7.5 L 15 7.5 L 15 11.5 L 14 11.5 L 9 11.5 L 9 13.5 L 6 11 L 9 8.5 L 9 10.5 L 12 10.5 L 13 10.5 L 14 10.5 L 14 7.5 z "
     class="ColorScheme-Text"
     />
</svg>

<svg xmlns="http://www.w3.org/2000/svg" viewBox="0 0 22 22"><defs id="defs3051"><style type="text/css" id="current-color-scheme">.ColorScheme-Text{color:#5d656b}</style></defs><path d="M17.969 6.531c.013.072.031.143.031.219v7.5c0 .693-.557 1.25-1.25 1.25H4.25c-.076 0-.147-.018-.219-.031A1.238 1.238 0 0 0 5.25 16.5h12.5c.693 0 1.25-.557 1.25-1.25v-7.5c0-.617-.446-1.114-1.031-1.219z" class="ColorScheme-Text" fill="currentColor" fill-opacity=".5"/><path d="M4.25 5.5C3.557 5.5 3 6.057 3 6.75v7.5c0 .693.557 1.25 1.25 1.25h12.5c.693 0 1.25-.557 1.25-1.25v-7.5c0-.693-.557-1.25-1.25-1.25H4.25zm9.75 2h1v4H9v2L6 11l3-2.5v2h5v-3z" class="ColorScheme-Text" fill="currentColor"/></svg>
